dist/images/ico/ico_sprites_checkbox02.svg

<svg width="102" height="18" viewBox="0 0 102 18" fill="none" xmlns="http://www.w3.org/2000/svg">
<rect x="0.5" y="0.5" width="17" height="17" rx="3.5" fill="white"/>
<rect x="0.5" y="0.5" width="17" height="17" rx="3.5" stroke="#D2D2D1"/>
<rect x="28.5" y="0.5" width="17" height="17" rx="3.5" fill="#E9E9E9"/>
<rect x="28.5" y="0.5" width="17" height="17" rx="3.5" stroke="#D2D2D1"/>
<rect x="56.5" y="0.5" width="17" height="17" rx="3.5" fill="#253981"/>
<path d="M62.7122 11.7948L60.21 9.28986C59.9312 9.01074 59.4879 9.01074 59.2091 9.28986C58.9303 9.56899 58.9303 10.0127 59.2091 10.2918L62.2046 13.2907C62.4835 13.5698 62.9339 13.5698 63.2127 13.2907L70.7909 5.71133C71.0697 5.43221 71.0697 4.98847 70.7909 4.70934C70.5121 4.43022 70.0688 4.43022 69.79 4.70934L62.7122 11.7948Z" fill="white"/>
<rect x="56.5" y="0.5" width="17" height="17" rx="3.5" stroke="#D2D2D1"/>
<rect x="84.5" y="0.5" width="17" height="17" rx="3.5" fill="#D2D2D1"/>
<path d="M89.9497 12.7264L86.6133 9.38648C86.2416 9.01431 85.6506 9.01431 85.2788 9.38648C84.9071 9.75865 84.9071 10.3503 85.2788 10.7225L89.2729 14.7209C89.6446 15.093 90.2452 15.093 90.6169 14.7209L100.721 4.61511C101.093 4.24294 101.093 3.65129 100.721 3.27913C100.349 2.90696 99.7584 2.90696 99.3867 3.27913L89.9497 12.7264Z" fill="white"/>
<rect x="84.5" y="0.5" width="17" height="17" rx="3.5" stroke="#D2D2D1"/>
</svg>

<svg width="102" height="18" fill="none" xmlns="http://www.w3.org/2000/svg"><rect x=".5" y=".5" width="17" height="17" rx="3.5" fill="#fff"/><rect x=".5" y=".5" width="17" height="17" rx="3.5" stroke="#D2D2D1"/><rect x="28.5" y=".5" width="17" height="17" rx="3.5" fill="#E9E9E9"/><rect x="28.5" y=".5" width="17" height="17" rx="3.5" stroke="#D2D2D1"/><rect x="56.5" y=".5" width="17" height="17" rx="3.5" fill="#253981"/><path d="M62.712 11.795L60.21 9.29a.703.703 0 00-1 0 .705.705 0 000 1.002l2.995 2.999a.712.712 0 001.008 0l7.578-7.58a.705.705 0 000-1.002.703.703 0 00-1.001 0l-7.078 7.086z" fill="#fff"/><rect x="56.5" y=".5" width="17" height="17" rx="3.5" stroke="#D2D2D1"/><rect x="84.5" y=".5" width="17" height="17" rx="3.5" fill="#D2D2D1"/><path d="M89.95 12.726l-3.337-3.34a.937.937 0 00-1.334 0 .94.94 0 000 1.337l3.994 3.998a.949.949 0 001.344 0L100.72 4.615a.94.94 0 000-1.336.937.937 0 00-1.334 0l-9.437 9.447z" fill="#fff"/><rect x="84.5" y=".5" width="17" height="17" rx="3.5" stroke="#D2D2D1"/></svg>
